Sources/FrostedUI/Resources/Icons.xcassets/questionCircle24.imageset/question-circle-24.svg

<svg width="24" height="24" viewBox="0 0 24 24" fill="none" xmlns="http://www.w3.org/2000/svg" data-fui-icon="true">
  <path
    d="M12 1C18.0751 1 23 5.92487 23 12C23 18.0751 18.0751 23 12 23C5.92487 23 1 18.0751 1 12C1 5.92487 5.92487 1 12 1ZM12 2.5C6.75329 2.5 2.5 6.75329 2.5 12C2.5 17.2467 6.75329 21.5 12 21.5C17.2467 21.5 21.5 17.2467 21.5 12C21.5 6.75329 17.2467 2.5 12 2.5ZM12 17C12.5523 17 13 17.4477 13 18C13 18.5523 12.5523 19 12 19C11.4477 19 11 18.5523 11 18C11 17.4477 11.4477 17 12 17ZM12 6C14.2091 6 16 7.79086 16 10C16 11.6794 14.9649 13.1149 13.501 13.708C12.9803 13.919 12.75 14.2601 12.75 14.5V15.25C12.75 15.6642 12.4142 16 12 16C11.5858 16 11.25 15.6642 11.25 15.25V14.5C11.25 13.3592 12.1796 12.6258 12.9385 12.3184C13.8555 11.9467 14.5 11.0476 14.5 10C14.5 8.61929 13.3807 7.5 12 7.5C10.6193 7.5 9.5 8.61929 9.5 10V10.25C9.5 10.6642 9.16421 11 8.75 11C8.33579 11 8 10.6642 8 10.25V10C8 7.79086 9.79086 6 12 6Z"
    fill="currentColor"
  />
</svg>

<svg xmlns="http://www.w3.org/2000/svg" width="24" height="24" fill="none" data-fui-icon="true" viewBox="0 0 24 24"><path fill="currentColor" d="M12 1c6.075 0 11 4.925 11 11s-4.925 11-11 11S1 18.075 1 12 5.925 1 12 1m0 1.5a9.5 9.5 0 1 0 0 19 9.5 9.5 0 0 0 0-19M12 17a1 1 0 1 1 0 2 1 1 0 0 1 0-2m0-11a4 4 0 0 1 1.501 7.708c-.52.211-.751.552-.751.792v.75a.75.75 0 0 1-1.5 0v-.75c0-1.14.93-1.874 1.688-2.182A2.501 2.501 0 0 0 12 7.5 2.5 2.5 0 0 0 9.5 10v.25a.75.75 0 0 1-1.5 0V10a4 4 0 0 1 4-4"/></svg>
